!!!!SEGMENT: pl-wnifc--13846--112_anonim--piesni-polskie-i-ruskie-ludu-galicyjskiego-112-ach-ja-neszczasny.krn
!!!kernsource:
!!!cenid: 18xx:3334
!!!COM: Anonim
!!!COM-rismid: pe30004985
!!!CDT:
!!!CNT:
!!!GTL: Pieśni polskie i ruskie ludu galicyjskiego
!!!OTL: 112. Ach ja neszczasny!
!!!PDT: 1833
!!!AGN:
!!!SMS-siglum: PL-Wnifc
!!!SMS-shelfmark: 13846
!!!SMS-shelfwork: 112 G
!!!NIFC-rismid: 1001039607
!!!URL-scan: http://repozytorium.nifc.pl/skany/pl-wnifc-nut--13846
!!!ONB-nifc:
!!!OMD: Andante
!!!key: g
**kern	**kern	**dynam	**kern	**text
*part2	*part2	*part2	*part1	*part1
*staff3	*staff2	*	*staff1	*staff1
*>[A,B,B]	*>[A,B,B]	*>[A,B,B]	*>[A,B,B]	*>[A,B,B]
*>A	*>A	*>A	*>A	*>A
*I"FORTEPIAN.	*I"FORTEPIAN.	*	*I"GŁOS.	*
*Ipiano	*Ipiano	*	*Ivox	*
*ICklav	*ICklav	*	*ICvox	*
*IGacmp	*IGacmp	*	*IGsolo	*
*clefF4	*clefG2	*	*clefG2	*
*k[e-b-]	*k[e-b-]	*	*k[e-b-]	*
*g:	*g:	*	*g:	*
*M2/4	*M2/4	*	*M2/4	*
=1-	=1-	=1-	=1-	=1-
!LO:TX:t=P:problem=mixed beam	!LO:TX:a:t=E.155:rj	!	!	!
(>8GG/|L	8.dd\L 8.b-\^	.	(>8.dd\L	Ach
8G\|	.	.	.	.
.	16cc\Jk 16a\|	.	16cc\Jk)	.
.	8qcc/	.	(<8qcc/	.
8G\|	8ee-\L 8cc\^<	.	8ee-\)	ja
8G\|J)	(16ee-\L 16cc\^<	.	(>16ee-\LL	ne-
.	16dd\JJ 16b-\)	.	16dd\JJ)	.
=2	=2	=2	=2	=2
!LO:TX:t=P:problem=mixed beam	!	!	!	!
8GG/L	(8.dd\L 8.b-\^	.	(>8.dd\L	-szcza-
8G\J	.	.	.	.
.	16cc\Jk 16a\)	.	16cc\Jk)	.
8E-/L 8GG/	(8.cc\L 8.a\	<	(>8.cc\L	-sny!
8D/J 8FF#X/	.	.	.	.
.	16dd\Jk 16a\)	[	16dd\Jk)	.
!!LO:LB:g=original
=3	=3	=3	=3	=3
8D/L 8GG/	16b-/ 16g/	.	16b-|/	szczo
.	8.b-/ 8.g/^	.	8.b-/^>	ma-
8E-/ 8EE-/	.	.	.	.
8C/ 8CC/	8.aa\L 8.ee-\ 8.cc\ 8.a\	.	8.a/	-ju
8D/J 8DD/	.	.	.	.
.	16ff#X\Jk 16cc\ 16a\ 16f#X\	.	16f#X/	di-
=4	=4	=4	=4	=4
8G/L 8GG/^	8gg\L 8dd\ 8g\	.	(<8g/^>L	-ja-
8D/ 8DD/^	8aa\ 8ff#X\ 8a\	.	8a/^>	.
8GG/ 8GGG/^	8bb-\ 8gg\ 8b-\	.	8b-/^>J	.
8FF/J 8FFF/^>	8ccc\J 8aa\ 8ffn\ 8cc\	.	8cc\)	-ty,
!!LO:LB:g=original
=5	=5	=5	=5	=5
*^	*	*	*	*
8BB-/L 8BBB-/	4.ryy	8.ddd\L 8.bb-\ 8.dd\	f	(>8.dd\L	lub-
(<8BB-/|	.	.	.	.	.
.	.	16ccc\Jk 16aa\ 16cc\	.	16cc\Jk)	.
.	.	.	.	(<8qcc/	.
8BB-/|)	.	8eee-\L 8ccc\ 8ee-\^<	.	8ee-\)	-lu
8BB-/J 8BBB-/	8BBB-\	(>16eee-\L 16ccc\ 16ee-\^<	.	(>16ee-\LL	diw-
.	.	16ddd\JJ 16bb-\ 16dd\)	.	16dd\JJ)	.
*v	*v	*	*	*	*
=6	=6	=6	=6	=6
8.BB-/L 8.BBB-/	8.ddd\L 8.bb-\ 8.ff\ 8.dd\^<	.	(>8.dd\L	-czy-
16C/Jk 16CC/	16ccc\Jk 16gg\ 16ee-\|<	.	16cc\Jk)	.
8C/L 8CC/|	8.ccc\L 8.gg\ 8.ee-\^<	.	(>8.cc\L	-nu,
8AA/J 8AAA/|	.	.	.	.
.	16ddd\Jk 16aa\ 16ff#X\ 16dd\|<	.	16dd\Jk)	.
!!LO:LB:g=original
=7	=7	=7	=7	=7
!LO:TX:t=P:problem=mixed beam	!	!	!	!
(>16GG/LL 16GGG/	16bb-\ 16gg\ 16b-\	.	16b-\	no
16d\	8.bb-\ 8.gg\ 8.b-\	.	8.b-\	mo-
16B-\	.	.	.	.
16G\JJ)	.	.	.	.
(>16D\LL	8.aa\L 8.a\	.	8.a/	-hu
16d\	.	.	.	.
16c\	.	.	.	.
16A\JJ)	16ff#X\Jk 16f#X\	.	16f#X/	ji
=8	=8	=8	=8	=8
!	!	!LO:HP:b=2	!	!
16G\|LL	4gg\ 4b-\ 4g\	<	4g/	w_zia-
16B-\	.	.	.	.
!	!	!LO:HP:b=2	!	!
.	.	[ >	.	.
16c#X\	.	.	.	.
.	.	]	.	.
16d\JJ	.	.	.	.
8G\|	8gg\ 8b-\ 8g\	.	8g/	-ty;
8r	8r	.	8r	.
!!LO:PB:g=original
=9!|:	=9!|:	=9!|:	=9!|:	=9!|:
*>B	*>B	*>B	*>B	*>B
!LO:TX:t=P:problem=mixed beam	!	!	!	!
16FF/LL	8ccc\L 8cc\'	.	8cc\	no
16f\	.	.	.	.
(16A\ 16F\	(>8ccc\ 8cc\'	.	8cc\	mo-
16f\JJ)	.	.	.	.
(16A\LL 16F\	8ccc\ 8cc\')	.	8cc\	-hu
16f\)	.	.	.	.
(16A\ 16F\	8ccc\J 8cc\'	.	8cc\	ji
16f\JJ)	.	.	.	.
=10	=10	=10	=10	=10
(16e-\LL 16F\^<	(>8ccc\L 8cc\	.	(8cc\L	w_zia-
16f\)	.	.	.	.
(16e-\ 16F\^<	8aa\ 8a\	.	8a\	.
16f\JJ)	.	.	.	.
(16d\LL 16F\^<	8bb-\ 8b-\)	.	8b-\J	.
16f\)	.	.	.	.
(16c\ 16F\^<	8ccc\J 8cc\|	.	8cc\)	-ty,
16f\JJ)	.	.	.	.
!!LO:LB:g=original
=11	=11	=11	=11	=11
*clefG2	*	*	*	*
*tremolo	*	*	*	*
(<16d/ 16B-/^>LL	(8ddd\L 8dd\|	.	8dd\	bo
16f/	.	.	.	.
16d/ 16B-/^>	8ddd\^<	.	8dd\	za-
16f/	.	.	.	.
16d/ 16B-/^>	8ddd\^<	.	8dd\	-ru-
16f/	.	.	.	.
16d/ 16B-/^>	8ddd\^<J)	.	8dd\	-cze-
16f/)JJ	.	.	.	.
=12	=12	=12	=12	=12
*	*	*	*^	*
!LO:S:s=2:note:problem=note-level slur	!	!	!	!	!
(<16d/ (<16c/ 16A^>/LL	8ddd\L 8dd\	<	(>8dd\L	8ryy	-na-
16f#X/	.	.	.	.	.
16d/ 16c/ 16A^>/	8eeen\ 8een\	.	8een\	4een/	.
16f#X/	.	.	.	.	.
16d/ 16c/ 16A^>/	8fff#y\ 8ff#X\	[	8ff#X\J)	.	.
16f#X/	.	.	.	.	.
16d/ 16c/ 16A^>/	8ddd\J 8dd\|	.	8dd\	8ryy	-ja,
16f#X/))JJ	.	.	.	.	.
*Xtremolo	*	*	*	*	*
*clefF4	*	*	*	*	*
*	*	*	*v	*v	*
!!LO:LB:g=original
=13	=13	=13	=13	=13
*^	*	*	*	*
.	.	8qgg/	.	.	.
4B-/	(>16B- 16G\LL	8.ggg\L 8.gg\	.	(>8.gg\L	ach!
.	16d\	.	.	.	.
.	16g\	.	.	.	.
.	16d\JJ)	16fffn\Jk 16ffn\	.	16ffn\Jk)	.
4ryy	(>16Bn\LL 16G\	(>16fff\LL 16ff\^<	.	(>16ff\LL	do-
.	16g\)	16eee-\ 16ee-\)	.	16ee-\JJ)	.
.	(>16c\ 16G\	(>16eee-\ 16ee-\^<	.	(>16ee-\LL	-łeż
.	16g\JJ)	16ddd\JJ 16dd\)	.	16dd\JJ)	.
=14	=14	=14	=14	=14	=14
(4F#X/	16F#\LL	(>8.ddd\L 8.dd\^<	.	(>8.dd\L	mo-
.	16d\	.	.	.	.
.	16a\	.	.	.	.
.	16d\JJ)	16ccc\Jk 16cc\)	.	16cc\Jk)	.
*rep	*rep	*	*	*	*
4F#/	16F#\LL	(>8.ccc\L 8.cc\	.	(>8.cc\L	-ja,
.	16d\	.	.	.	.
.	16a\	.	.	.	.
.	16d\JJ	16ddd\Jk 16dd\)	.	16dd\Jk)	.
*Xrep	*Xrep	*	*	*	*
*v	*v	*	*	*	*
!!LO:LB:g=original
=15	=15	=15	=15	=15
*^	*	*	*	*
(16B-\LL 16G\	4ryy	8bb-\L 8b-\	.	8b-\	do-
16d\	.	.	.	.	.
16g\	.	8bb-\J 8b-\	.	8b-\	-łe
16d\JJ)	.	.	.	.	.
(16D\LL	4D/	8.aa\L 8.a\	.	8.a/	ne-
16F#X\	.	.	.	.	.
16c\	.	.	.	.	.
16F#\JJ)	.	16bb-\Jk 16b-\	.	16b-/	-szcza-
*v	*v	*	*	*	*
=16	=16	=16	=16	=16
16G\LL	4gg\ 4g\	.	4g/	-sna-
16e-\	.	.	.	.
16d	.	.	.	.
16B-\JJ	.	.	.	.
8G\	8gg\ 8g\	.	8g/	-ja.
8r	8r	.	8r	.
==	==	==	==	==
*-	*-	*-	*-	*-
!!!system-decoration: <s1>{(s2,s3)}
!!!RDF**kern: > = above
!!!RDF**kern: < = below
!!!RDF**kern: | = vertical stroke
!!!AIN: 1 piano 1 vox
!!!ENC: Andrzej Kubiczek
!!!END: 2021-11-11
